!!!COM: Bohuslav (Jan) Martinů
!!!OTL: [T491_Mau-112/14-15/78-84]
**kern	**dynam	**kern	**dynam	**kern	**dynam	**kern	**dynam	**kern	**dynam	**kern	**dynam	**kern	**dynam	**kern	**dynam	**kern	**dynam	**kern	**dynam	**kern	**dynam	**kern	**dynam	**kern	**dynam	**kern	**dynam	**kern	**dynam	**kern	**dynam	**kern	**dynam	**kern	**dynam	**kern	**dynam	**kern	**dynam	**kern	**dynam
*grp:A	*grp:A	*grp:A	*grp:A	*grp:A	*grp:A	*grp:B	*grp:B	*grp:B	*grp:B	*grp:B	*grp:B	*grp:A	*grp:A	*grp:A	*grp:A	*grp:A	*grp:A	*grp:A	*grp:A	*grp:A	*grp:A	*grp:A	*grp:A	*grp:A	*grp:A	*grp:A	*grp:A	*grp:A	*grp:A	*grp:A	*grp:A	*grp:A	*grp:A	*grp:A	*grp:A	*grp:A	*grp:A	*grp:A	*grp:A	*grp:B	*grp:B
*part21	*part21	*part20	*part20	*part19	*part19	*part18	*part18	*part17	*part17	*part16	*part16	*part15	*part15	*part14	*part14	*part13	*part13	*part12	*part12	*part11	*part11	*part10	*part10	*part9	*part9	*part8	*part8	*part7	*part7	*part6	*part6	*part5	*part5	*part4	*part4	*part3	*part3	*part2	*part2	*part1	*part1
*staff21	*	*staff20	*	*staff19	*	*staff18	*	*staff17	*	*staff16	*	*staff15	*	*staff14	*	*staff13	*	*staff12	*	*staff11	*	*staff10	*	*staff9	*	*staff8	*	*staff7	*	*staff6	*	*staff5	*	*staff4	*	*staff3	*	*staff2	*	*staff1	*
*I"Contrabass	*	*I"Violoncello	*	*I"Viola	*	*I"Violin II	*	*I"Violin I	*	*I"Tenor Dr.	*	*I"Timpani	*	*I"Trombone III.	*	*I"Trombone I. II.	*	*I"Trumpet in C III.	*	*I"Trumpet in C I. II.	*	*I"Horn in F III. IV.	*	*I"Horn in F I. II.	*	*I"Contrabassoon	*	*I"Bassoon III.	*	*I"Bassoon I. II.	*	*I"Clarinet in Bb III.	*	*I"Clarinet in Bb I. II.	*	*I"Oboe III.	*	*I"Oboe I. II.	*	*I"Flute I. II. III.	*
*I'Cb.	*	*I'Vc.	*	*I'Vla.	*	*I'Vln. II	*	*I'Vln. I	*	*I'Perc.	*	*I'Timp.	*	*I'Tbn. III.	*	*I'Tbn. I. II.	*	*I'C Tpt. III.	*	*I'C Tpt. I. II.	*	*I'Hn. III. IV.	*	*I'Hn. I. II.	*	*I'Cbsn.	*	*I'Bsn. III.	*	*I'Bsn. I. II.	*	*I'Cl. III.	*	*I'Cl. I. II.	*	*I'Ob. III.	*	*I'Ob. I. II.	*	*I'Fl. I. II. III.	*
!!pagebreak:original
*clefF4	*	*clefF4	*	*clefG2	*	*clefG2	*	*clefG2	*	*clefX	*	*clefF4	*	*clefF4	*	*clefF4	*	*clefG2	*	*clefG2	*	*clefG2	*	*clefG2	*	*clefF4	*	*clefF4	*	*clefF4	*	*clefG2	*	*clefG2	*	*clefG2	*	*clefG2	*	*clefG2	*
*ITrd7c12	*	*	*	*	*	*	*	*	*	*	*	*	*	*	*	*	*	*	*	*	*	*ITrd4c7	*	*ITrd4c7	*	*ITrd7c12	*	*	*	*	*	*ITrd1c2	*	*ITrd1c2	*	*	*	*	*	*	*
*k[]	*	*k[]	*	*k[]	*	*k[]	*	*k[]	*	*k[]	*	*k[]	*	*k[]	*	*k[]	*	*k[]	*	*k[]	*	*k[b-]	*	*k[b-]	*	*k[]	*	*k[]	*	*k[]	*	*k[]	*	*k[]	*	*k[]	*	*k[]	*	*k[]	*
*C:	*	*C:	*	*C:	*	*C:	*	*C:	*	*C:	*	*C:	*	*C:	*	*C:	*	*C:	*	*C:	*	*F:	*	*F:	*	*C:	*	*C:	*	*C:	*	*C:	*	*C:	*	*C:	*	*C:	*	*C:	*
*M2/4	*	*M2/4	*	*M2/4	*	*M2/4	*	*M2/4	*	*M2/4	*	*M2/4	*	*M2/4	*	*M2/4	*	*M2/4	*	*M2/4	*	*M2/4	*	*M2/4	*	*M2/4	*	*M2/4	*	*M2/4	*	*M2/4	*	*M2/4	*	*M2/4	*	*M2/4	*	*M2/4	*
=78	=78	=78	=78	=78	=78	=78	=78	=78	=78	=78	=78	=78	=78	=78	=78	=78	=78	=78	=78	=78	=78	=78	=78	=78	=78	=78	=78	=78	=78	=78	=78	=78	=78	=78	=78	=78	=78	=78	=78	=78	=78
.	.	.	.	.	.	.	.	.	.	32qqRcc/LLL	.	.	.	.	.	.	.	.	.	.	.	.	.	.	.	.	.	.	.	.	.	.	.	.	.	.	.	.	.	.	.
.	.	.	.	.	.	.	.	.	.	32qqRcc/	.	.	.	.	.	.	.	.	.	.	.	.	.	.	.	.	.	.	.	.	.	.	.	.	.	.	.	.	.	.	.
!	!	!	!	!	!	!	!	!	!	!	!	!	!	!	!	!	!	!	!	!	!	!	!	!	!	!	!	!	!	!	!	!	!	!	!	!	!	!	!	!LO:TX:t=Allegro [quarter]=100	!
.	.	.	.	.	.	.	.	.	.	32qqRcc/JJJ	.	.	.	.	.	.	.	.	.	.	.	.	.	.	.	.	.	.	.	.	.	.	.	.	.	.	.	.	.	.	.
*	*	*	*	*	*	*	*	*	*	*	*	*	*	*	*	*	*	*	*	*	*	*^	*	*^	*	*	*	*	*	*	*	*	*	*	*	*	*	*	*	*	*
!	!	!	!	!	!	!	!	!	!	!	!LO:DY:ed=brack	!	!	!	!	!	!	!	!	!	!	!	!	!LO:DY:a	!	!	!LO:DY:a	!	!	!	!	!	!	!	!	!	!	!	!	!	!	!	!
8r	.	16B-XLL 16e-X	f	16ee-XLL 16ggn	f	16cc#XLL 16ccc#X	f	(16ff#XLL 16fff#X	f	8Rcc\	f	2r	.	8r	.	8r	.	2r	.	2r	.	16e-XLL	4r	f	16e-XLL	4r	f	8r	.	8r	.	8r	.	8r	.	8r	.	8r	.	8r	.	8fff#X'	f
!	!	!	!	!	!	!	!	!LO:TX:a:i:t=(senza string.)	!	!	!	!	!	!	!	!	!	!	!	!	!	!	!	!	!	!	!	!	!	!	!	!	!	!	!	!	!	!	!	!	!	!	!
.	.	16B- 16e-	.	16ee- 16gg	.	16cc# 16ccc#	.	16ee 16eee)	.	.	.	.	.	.	.	.	.	.	.	.	.	16e-	.	.	16e-	.	.	.	.	.	.	.	.	.	.	.	.	.	.	.	.	.	.
.	.	.	.	.	.	.	.	.	.	.	.	.	.	.	.	.	.	.	.	.	.	.	.	.	.	.	.	.	.	.	.	.	.	(8qdd-X/	.	.	.	.	.	.	.	.	.
!	!	!	!	!	!	!	!	!	!	!	!	!	!	!	!LO:DY:ed=brack	!	!LO:DY:ed=brack	!	!	!	!	!	!	!	!	!	!	!	!	!	!	!	!	!	!	!	!	!	!	!	!	!	!
4BBB-X	f	16B- 16e-	.	16ee- 16gg	.	16cc# 16ccc#	.	16ee' 16eee	.	8r	.	.	.	4BB-X	f	4E-X 4G	f	.	.	.	.	16e-	.	.	16e-	.	.	(4BBB-X	f	(4BB-X	f	(4B-X 4e-X	f	8ddd-X')	f	16ee-'LL 16gg-X	f	8ccc#X'	f	(4ee-X 4gg	f	8r	.
.	.	16B-JJ 16e-	.	16ee-JJ 16gg	.	16cc#JJ 16ccc#	.	16ee'JJ 16eee	.	.	.	.	.	.	.	.	.	.	.	.	.	16e-JJ	.	.	16e-JJ	.	.	.	.	.	.	.	.	.	.	16ee-'JJ 16gg-	.	.	.	.	.	.	.
.	.	16A-XLL 16d-X	.	16ddLL 16ff	.	(20cc#LL 20ccc#	.	(20eeLL 20eee	.	4r	.	.	.	.	<	.	<	.	.	.	.	8e-	(16e-LL	f	8e-	(16e-LL	f	.	.	.	.	.	.	8r	.	8r	.	(16ccc#KL	.	.	.	20fff#LL	.
.	.	.	.	.	.	20dd#X 20ddd#X)	.	20ff# 20fff#)	.	.	.	.	.	.	.	.	.	.	.	.	.	.	.	.	.	.	.	.	.	.	.	.	.	.	.	.	.	.	.	.	.	20fff#	.
.	.	16A- 16d-	.	16dd 16ff	.	.	.	.	.	.	.	.	.	.	.	.	.	.	.	.	.	.	16d-X)	.	.	16d-X)	.	.	.	.	.	.	.	.	.	.	.	8.ddd#XJ)	.	.	.	.	.
.	.	.	.	.	.	20dd# 20ddd#	.	20ff# 20fff#	.	.	.	.	.	.	.	.	.	.	.	.	.	.	.	.	.	.	.	.	.	.	.	.	.	.	.	.	.	.	.	.	.	20fff#	.
.	.	.	.	.	.	.	.	.	.	.	.	.	.	.	.	.	.	.	.	.	.	.	.	.	.	.	.	.	.	.	.	.	.	(8qee-/	.	.	.	.	.	.	.	.	.
[8BB-X	.	16A- 16d-	.	16dd 16ff	.	.	.	.	.	.	.	.	.	[8B-X	[ f	[8e-X [8g	[ f	.	.	.	.	8r	16d-'	.	8r	16d-'	.	[8BB-X	.	[8B-X	.	[8A-X [8d-X	.	8eee-')	.	16dd-X'LL 16ff	.	.	.	[8dd [8ff	.	.	.
.	.	.	.	.	.	20dd# 20ddd#	.	20ff# 20fff#	.	.	.	.	.	.	.	.	.	.	.	.	.	.	.	.	.	.	.	.	.	.	.	.	.	.	.	.	.	.	.	.	.	20fff#	.
.	.	16A-JJ 16d-	.	16ddJJ 16ff	.	.	.	.	.	.	.	.	.	.	.	.	.	.	.	.	.	.	16e-'JJ	.	.	16e-'JJ	.	.	.	.	.	.	.	.	.	16dd-'JJ 16ff	.	.	.	.	.	.	.
.	.	.	.	.	.	20dd#JJ 20ddd#	.	20ff#JJ 20fff#	.	.	.	.	.	.	.	.	.	.	.	.	.	.	.	.	.	.	.	.	.	.	.	.	.	.	.	.	.	.	.	.	.	20fff#JJ	.
=79	=79	=79	=79	=79	=79	=79	=79	=79	=79	=79	=79	=79	=79	=79	=79	=79	=79	=79	=79	=79	=79	=79	=79	=79	=79	=79	=79	=79	=79	=79	=79	=79	=79	=79	=79	=79	=79	=79	=79	=79	=79	=79	=79
*	*	*	*	*	*	*	*	*	*	*	*	*	*	*	*	*	*	*	*	*^	*	*	*	*	*	*	*	*	*	*	*	*	*	*	*	*	*	*	*	*	*	*	*
8BB-]	.	16B-XLL 16e-X	.	16ee-XLL 16gg	.	16cc#XLL 16ccc#X	.	(16ff#XLL 16fff#X	.	2r	.	2r	.	8B-]	.	8e-] 8g]	.	2r	.	2r	8r	f	16e-X'LL	8e-	.	16e-X'LL	8e-	.	8BB-])	.	8B-])	.	8A-] 8d-])	.	8r	.	8r	.	8r	.	8dd] 8ff])	.	8fff#X'	.
.	.	16B- 16e-	.	16ee- 16gg	.	16cc# 16ccc#	.	16ee 16eee)	.	.	.	.	.	.	.	.	.	.	.	.	.	.	16e-'	.	.	16e-'	.	.	.	.	.	.	.	.	.	.	.	.	.	.	.	.	.	.
.	.	.	.	.	.	.	.	.	.	.	.	.	.	.	.	.	.	.	.	.	.	.	.	.	.	.	.	.	.	.	.	.	.	.	(8qdd-X/	.	.	.	.	.	.	.	.	.
8r	.	16B- 16e-	.	16ee- 16gg	.	16cc# 16ccc#	.	16ee' 16eee	.	.	.	.	.	8r	.	8r	.	.	.	.	16aLL	.	(16f-X	8r	.	(16f-X	8r	.	8r	.	8r	.	(4B-X 4e-X	.	8ddd-X')	.	16ee-'LL 16gg	.	8ccc#X'	.	(4ee-X 4gg	.	8r	.
.	.	16B-JJ 16e-	.	16ee-JJ 16gg	.	16cc#JJ 16ccc#	.	16ee'JJ 16eee	.	.	.	.	.	.	.	.	.	.	.	.	16aJJ	.	16e-JJ)	.	.	16e-JJ)	.	.	.	.	.	.	.	.	.	.	16ee-'JJ 16gg	.	.	.	.	.	.	.
4r	.	16A-XLL 16d-X	.	16dd-XLL 16ff	.	(20cc#LL 20ccc#	.	(20eeLL 20eee	.	.	.	.	.	4r	.	4r	.	.	.	.	16b-XLL	.	8e-'	(16e-LL	.	8e-	(16e'>-LL	.	4r	.	4r	.	.	.	8r	.	8r	.	(16ccc#KL	.	.	.	20fff#LL	.
.	.	.	.	.	.	20dd#X 20ddd#X)	.	20ff# 20fff#)	.	.	.	.	.	.	.	.	.	.	.	.	.	.	.	.	.	.	.	.	.	.	.	.	.	.	.	.	.	.	.	.	.	.	20fff#	.
.	.	16A- 16d-	.	16dd- 16ff	.	.	.	.	.	.	.	.	.	.	.	.	.	.	.	.	16b-	.	.	16d-X)	.	.	16d-X)	.	.	.	.	.	.	.	.	.	.	.	8.ddd#XJ)	.	.	.	.	.
.	.	.	.	.	.	20dd# 20ddd#	.	20ff# 20fff#	.	.	.	.	.	.	.	.	.	.	.	.	.	.	.	.	.	.	.	.	.	.	.	.	.	.	.	.	.	.	.	.	.	.	20fff#	.
.	.	.	.	.	.	.	.	.	.	.	.	.	.	.	.	.	.	.	.	.	.	.	.	.	.	.	.	.	.	.	.	.	.	.	(8qee-/	.	.	.	.	.	.	.	.	.
.	.	16A- 16d-	.	16dd- 16ff	.	.	.	.	.	.	.	.	.	.	.	.	.	.	.	.	16cc	.	8r	16d-'	.	8r	16d-'	.	.	.	.	.	[8A-X [8d-X	.	8eee-')	.	16dd-X'LL 16ff	.	.	.	[8dd-X [8ff	.	.	.
.	.	.	.	.	.	20dd# 20ddd#	.	20ff# 20fff#	.	.	.	.	.	.	.	.	.	.	.	.	.	.	.	.	.	.	.	.	.	.	.	.	.	.	.	.	.	.	.	.	.	.	20fff#	.
.	.	16A-JJ 16d-	.	16dd-JJ 16ff	.	.	.	.	.	.	.	.	.	.	.	.	.	.	.	.	16ccJJ	.	.	16e-'JJ	.	.	16e-'JJ	.	.	.	.	.	.	.	.	.	16dd-'JJ 16ff	.	.	.	.	.	.	.
.	.	.	.	.	.	20dd#JJ 20ddd#	.	20ff#JJ 20fff#	.	.	.	.	.	.	.	.	.	.	.	.	.	.	.	.	.	.	.	.	.	.	.	.	.	.	.	.	.	.	.	.	.	.	20fff#JJ	.
!!pagebreak:original
=80	=80	=80	=80	=80	=80	=80	=80	=80	=80	=80	=80	=80	=80	=80	=80	=80	=80	=80	=80	=80	=80	=80	=80	=80	=80	=80	=80	=80	=80	=80	=80	=80	=80	=80	=80	=80	=80	=80	=80	=80	=80	=80	=80	=80
2r	.	16B-XLL 16e-X	.	16ee-XLL 16gg	.	16cc#XLL 16ccc#X	.	(16ff#XLL 16fff#X	.	2r	.	2r	.	2r	.	2r	.	8r	.	8r	8cc#X	.	16e-X'LL	8e-	.	16e-X'LL	8e-	.	2r	.	2r	.	8A-] 8d-])	.	8r	.	8r	.	8r	.	8dd-] 8ff])	.	8fff#X'	.
.	.	16B- 16e-	.	16ee- 16gg	.	16cc# 16ccc#	.	16ee 16eee)	.	.	.	.	.	.	.	.	.	.	.	.	.	.	16e-'	.	.	16e-'	.	.	.	.	.	.	.	.	.	.	.	.	.	.	.	.	.	.
.	.	.	.	.	.	.	.	.	.	.	.	.	.	.	.	.	.	.	.	.	.	.	.	.	.	.	.	.	.	.	.	.	.	.	(8qdd-X/	.	.	.	.	.	.	.	.	.
.	.	16B- 16e-	.	16ee- 16gg	.	16cc# 16ccc#	.	16ee 16eee	.	.	.	.	.	.	.	.	.	16cc#XLL	f	16eeLL	8r	f	(16fn	8r	.	(16f	8r	.	.	.	.	.	(4B-X 4e-X	.	8ddd-X')	.	16ee-'LL 16gg	.	8ccc#X'	.	(4ee-X 4gg	.	8r	.
.	.	16B-JJ 16e-	.	16ee-JJ 16gg	.	16cc#JJ 16ccc#	.	16eeJJ 16eee	.	.	.	.	.	.	.	.	.	16cc#JJ	.	16dd#XJJ	.	.	16e-JJ)	.	.	16e-JJ)	.	.	.	.	.	.	.	.	.	.	16ee-'JJ 16gg	.	.	.	.	.	.	.
.	.	16A-XLL 16d-X	.	16dd-XLL 16ff	.	(20cc#LL 20ccc#	.	(20eeLL 20eee	.	.	.	.	.	.	.	.	.	16cc#LL	.	16dd#LL	4r	.	8e-	(16e-LL	.	8e-	(16e-LL	.	.	.	.	.	.	.	8r	.	8r	.	(16ccc#KL	.	.	.	20fff#LL	.
.	.	.	.	.	.	20dd#X 20ddd#X)	.	20ff# 20fff#)	.	.	.	.	.	.	.	.	.	.	.	.	.	.	.	.	.	.	.	.	.	.	.	.	.	.	.	.	.	.	.	.	.	.	20fff#	.
.	.	16A- 16d-	.	16dd- 16ff	.	.	.	.	.	.	.	.	.	.	.	.	.	16b	.	16cc#X	.	.	.	16d-X)	.	.	16d-X)	.	.	.	.	.	.	.	.	.	.	.	8.ddd#XJ)	.	.	.	.	.
.	.	.	.	.	.	20dd# 20ddd#	.	20ff# 20fff#	.	.	.	.	.	.	.	.	.	.	.	.	.	.	.	.	.	.	.	.	.	.	.	.	.	.	.	.	.	.	.	.	.	.	20fff#	.
.	.	.	.	.	.	.	.	.	.	.	.	.	.	.	.	.	.	.	.	.	.	.	.	.	.	.	.	.	.	.	.	.	.	.	(8qee-/	.	.	.	.	.	.	.	.	.
.	.	16A- 16d-	.	16dd- 16ff	.	.	.	.	.	.	.	.	.	.	.	.	.	16b	.	16cc#	.	.	8r	16d-'	.	8r	16d-'	.	.	.	.	.	8A-X' 8d-X)	.	8eee-')	.	16dd-X'LL 16ff	.	.	.	8dd-X' 8ff)	.	.	.
.	.	.	.	.	.	20dd# 20ddd#	.	20ff# 20fff#	.	.	.	.	.	.	.	.	.	.	.	.	.	.	.	.	.	.	.	.	.	.	.	.	.	.	.	.	.	.	.	.	.	.	20fff#	.
.	.	16A-JJ 16d-	.	16dd-JJ 16ff	.	.	.	.	.	.	.	.	.	.	.	.	.	16bJJ	.	16dd#JJ	.	.	.	16e-'JJ	.	.	16e-'JJ	.	.	.	.	.	.	.	.	.	16dd-'JJ 16ff	.	.	.	.	.	.	.
.	.	.	.	.	.	20dd#JJ 20ddd#	.	20ff#JJ 20fff#	.	.	.	.	.	.	.	.	.	.	.	.	.	.	.	.	.	.	.	.	.	.	.	.	.	.	.	.	.	.	.	.	.	.	20fff#JJ	.
!!LO:REH:t=8
=81	=81	=81	=81	=81	=81	=81	=81	=81	=81	=81	=81	=81	=81	=81	=81	=81	=81	=81	=81	=81	=81	=81	=81	=81	=81	=81	=81	=81	=81	=81	=81	=81	=81	=81	=81	=81	=81	=81	=81	=81	=81	=81	=81	=81
4BBBn	.	16BnLL 16en	.	16eenLL 16gg	.	16cc#XLL 16ccc#X	.	(16ff#XLL 16fff#X	.	2r	.	2r	.	4BBn	<	4En 4G	<	8b'	.	8ee	8r	.	16e'LL	8e	.	16g'LL	8en	.	8r	.	8r	.	8r	.	8r	.	8r	.	8r	.	8r	.	8fff#X'	.
.	.	16B 16e	.	16ee 16gg	.	16cc# 16ccc#	.	16ee 16eee)	.	.	.	.	.	.	.	.	.	.	.	.	.	.	16e'	.	.	16g'	.	.	.	.	.	.	.	.	.	.	.	.	.	.	.	.	.	.
.	.	.	.	.	.	.	.	.	.	.	.	.	.	.	.	.	.	.	.	.	.	.	.	.	.	.	.	.	.	.	.	.	.	.	(8qdd-X/	.	.	.	.	.	.	.	.	.
.	.	16B 16e	.	16ee 16gg	.	16cc# 16ccc#	.	16ee 16eee	.	.	.	.	.	.	.	.	.	8r	.	8r	16aLL	.	16e'	8r	.	16g'	8r	.	(4BBBn	.	(4BBn	.	(4Bn 4en	.	8ddd-X')	.	16eenX'LL 16gg	.	8ccc#X'	.	(4een 4gg	.	8r	.
.	.	16BJJ 16e	.	16eeJJ 16gg	.	16cc#JJ 16ccc#	.	16eeJJ 16eee	.	.	.	.	.	.	.	.	.	.	.	.	16aJJ	.	16e'JJ	.	.	16g'JJ	.	.	.	.	.	.	.	.	.	.	16ee'JJ 16gg	.	.	.	.	.	.	.
[4BBn	.	16A#XLL 16d#X	.	16dd#XLL 16ff#X	.	(20cc#LL 20ccc#	.	(20eeLL 20eee	.	.	.	.	.	[4Bn	f [	[4e [4g	f [	4r	.	4r	16b-XLL	.	8f#X	(16f#LL	.	8a'	(16aLL	.	.	.	.	.	.	.	8r	.	8r	.	(16ccc#KL	.	.	.	20fff#LL	.
.	.	.	.	.	.	20dd#X 20ddd#X)	.	20ff# 20fff#)	.	.	.	.	.	.	.	.	.	.	.	.	.	.	.	.	.	.	.	.	.	.	.	.	.	.	.	.	.	.	.	.	.	.	20fff#	.
.	.	16A# 16d#	.	16dd# 16ff#	.	.	.	.	.	.	.	.	.	.	.	.	.	.	.	.	16b-	.	.	16e)	.	.	16g)	.	.	.	.	.	.	.	.	.	.	.	8.ddd#XJ)	.	.	.	.	.
.	.	.	.	.	.	20dd# 20ddd#	.	20ff# 20fff#	.	.	.	.	.	.	.	.	.	.	.	.	.	.	.	.	.	.	.	.	.	.	.	.	.	.	.	.	.	.	.	.	.	.	20fff#	.
.	.	.	.	.	.	.	.	.	.	.	.	.	.	.	.	.	.	.	.	.	.	.	.	.	.	.	.	.	.	.	.	.	.	.	(8qee-/	.	.	.	.	.	.	.	.	.
.	.	16A# 16d#	.	16dd# 16ff#	.	.	.	.	.	.	.	.	.	.	.	.	.	.	.	.	16cc	.	8r	16e'	.	8r	16g'	.	[8BBn	.	[8Bn	.	[8A#X [8d#X	.	8eee-')	.	16ee-'LL 16gg-X	.	.	.	[8dd#X [8ff#X	.	.	.
.	.	.	.	.	.	20dd# 20ddd#	.	20ff# 20fff#	.	.	.	.	.	.	.	.	.	.	.	.	.	.	.	.	.	.	.	.	.	.	.	.	.	.	.	.	.	.	.	.	.	.	20fff#	.
.	.	16A#JJ 16d#	.	16dd#JJ 16ff#	.	.	.	.	.	.	.	.	.	.	.	.	.	.	.	.	16ddJJ	.	.	16e'JJ	.	.	16g'JJ	.	.	.	.	.	.	.	.	.	16ee-'JJ 16gg-	.	.	.	.	.	.	.
.	.	.	.	.	.	20dd#JJ 20ddd#	.	20ff#JJ 20fff#	.	.	.	.	.	.	.	.	.	.	.	.	.	.	.	.	.	.	.	.	.	.	.	.	.	.	.	.	.	.	.	.	.	.	20fff#JJ	.
=82	=82	=82	=82	=82	=82	=82	=82	=82	=82	=82	=82	=82	=82	=82	=82	=82	=82	=82	=82	=82	=82	=82	=82	=82	=82	=82	=82	=82	=82	=82	=82	=82	=82	=82	=82	=82	=82	=82	=82	=82	=82	=82	=82	=82
8BB]	.	16BLL 16e	.	16eenLL 16gg	.	16cc#XLL 16ccc#X	.	(16ff#XLL 16fff#X	.	4r	.	2r	.	8B]	.	8e] 8g]	.	8r	.	8r	8ee	.	16e'LL	8e	.	16g'LL	8g	.	8BB])	.	8B])	.	8A#] 8d#])	.	8r	.	8r	.	8r	.	8dd#] 8ff#])	.	8fff#X'	.
.	.	16B 16e	.	16ee 16gg	.	16cc# 16ccc#	.	16ee 16eee)	.	.	.	.	.	.	.	.	.	.	.	.	.	.	16e'	.	.	16g'	.	.	.	.	.	.	.	.	.	.	.	.	.	.	.	.	.	.
.	.	.	.	.	.	.	.	.	.	.	.	.	.	.	.	.	.	.	.	.	.	.	.	.	.	.	.	.	.	.	.	.	.	.	(8qdd-X/	.	.	.	.	.	.	.	.	.
8r	.	16B 16e	.	16ee 16gg	.	16cc# 16ccc#	.	16ee 16eee	.	.	.	.	.	8r	.	8r	.	16cc#XLL	.	16ff#XLL	8r	.	16e'	8r	.	16g'	8r	.	8r	.	8r	.	(4B 4e	.	8ddd-X')	.	16eenX'LL 16gg	.	8ccc#X'	.	(4ee 4gg	.	8r	.
.	.	16BJJ 16e	.	16eeJJ 16gg	.	16cc#JJ 16ccc#	.	16eeJJ 16eee	.	.	.	.	.	.	.	.	.	16cc#JJ	.	16eeJJ	.	.	16e'JJ	.	.	16g'JJ	.	.	.	.	.	.	.	.	.	.	16ee'JJ 16gg	.	.	.	.	.	.	.
4r	.	16A#XLL 16d#X	.	16dd#XLL 16ff#X	.	(20cc#LL 20ccc#	.	(20eeLL 20eee	.	20Rcc\LL	f	.	.	4r	.	4r	.	16cc#LL	.	16dd#XLL	4r	.	8f#X	(16f#LL	.	8a	(16aLL	.	4r	.	4r	.	.	.	8r	.	8r	.	(16ccc#KL	.	.	.	20fff#LL	.
.	.	.	.	.	.	20dd#X 20ddd#X)	.	20ff# 20fff#)	.	20Rcc\	.	.	.	.	.	.	.	.	.	.	.	.	.	.	.	.	.	.	.	.	.	.	.	.	.	.	.	.	.	.	.	.	20fff#	.
.	.	16A# 16d#	.	16dd# 16ff#	.	.	.	.	.	.	.	.	.	.	.	.	.	16b	.	16cc#X	.	.	.	16e)	.	.	16g)	.	.	.	.	.	.	.	.	.	.	.	8.ddd#XJ)	.	.	.	.	.
.	.	.	.	.	.	20dd# 20ddd#	.	20ff# 20fff#	.	20Rcc\	.	.	.	.	.	.	.	.	.	.	.	.	.	.	.	.	.	.	.	.	.	.	.	.	.	.	.	.	.	.	.	.	20fff#	.
.	.	.	.	.	.	.	.	.	.	.	.	.	.	.	.	.	.	.	.	.	.	.	.	.	.	.	.	.	.	.	.	.	.	.	(8qee-/	.	.	.	.	.	.	.	.	.
.	.	16A# 16d#	.	16dd# 16ff#	.	.	.	.	.	.	.	.	.	.	.	.	.	16b	.	16dd#	.	.	8r	16e'	.	8r	16g'	.	.	.	.	.	8A#X' 8d#X)	.	8eee-')	.	16ee-'LL 16gg-X	.	.	.	8dd#X' 8ff#X)	.	.	.
.	.	.	.	.	.	20dd# 20ddd#	.	20ff# 20fff#	.	20Rcc\	.	.	.	.	.	.	.	.	.	.	.	.	.	.	.	.	.	.	.	.	.	.	.	.	.	.	.	.	.	.	.	.	20fff#	.
.	.	16A#JJ 16d#	.	16dd#JJ 16ff#	.	.	.	.	.	.	.	.	.	.	.	.	.	16bJJ	.	16eeJJ	.	.	.	16e'JJ	.	.	16g'JJ	.	.	.	.	.	.	.	.	.	16ee-'JJ 16gg-	.	.	.	.	.	.	.
.	.	.	.	.	.	20dd#JJ 20ddd#	.	20ff#JJ 20fff#	.	20Rcc\JJ	.	.	.	.	.	.	.	.	.	.	.	.	.	.	.	.	.	.	.	.	.	.	.	.	.	.	.	.	.	.	.	.	20fff#JJ	.
*	*	*clefG2	*	*	*	*	*	*	*	*	*	*	*	*	*	*	*	*	*	*	*	*	*	*	*	*	*	*	*	*	*	*	*	*	*	*	*	*	*	*	*	*	*	*
=83	=83	=83	=83	=83	=83	=83	=83	=83	=83	=83	=83	=83	=83	=83	=83	=83	=83	=83	=83	=83	=83	=83	=83	=83	=83	=83	=83	=83	=83	=83	=83	=83	=83	=83	=83	=83	=83	=83	=83	=83	=83	=83	=83	=83
4r	.	16dnLL 16g	.	16ggLL 16bb-X	.	16cc#XLL 16ccc#X	.	16ff#XLL 16fff#X	.	2r	.	16BB-XLL	f	4r	.	4r	.	8cc#X'	.	8ff#X	8r	.	(16gLL	8e	.	(16b-LL	8g	.	4r	.	4r	.	8r	.	8r	.	8r	.	8r	.	8r	.	8fff#X'	.
.	.	16d 16g	.	16gg 16bb-	.	16cc# 16ccc#	.	16ff# 16fff#	.	.	.	16BB-JJ	.	.	.	.	.	.	.	.	.	.	16f#X)	.	.	16a)	.	.	.	.	.	.	.	.	.	.	.	.	.	.	.	.	.	.
*	*	*	*	*	*	*	*	*	*	*	*	*	*	*	*	*	*	*	*	*	*	*	*	*	*	*	*	*	*	*	*	*	*	*	*	*	*^	*	*	*	*	*	*	*
.	.	16d 16g	.	16gg 16bb-	.	16cc# 16ccc#	.	16ff# 16fff#	.	.	.	8r	.	.	.	.	.	8r	.	8r	16a#XLL	.	16f#'	8r	.	16a'	8r	.	.	.	.	.	(4G 4g	.	(4b-	.	[4.gg	(4dd	.	(4ccc#X	.	(4gg 4bb-X	.	8r	.
.	.	16dJJ 16g	.	16ggJJ 16bb-	.	16cc#JJ 16ccc#	.	16ff#JJ 16fff#	.	.	.	.	.	.	.	.	.	.	.	.	16a#JJ	.	16f#'JJ	.	.	16a'JJ	.	.	.	.	.	.	.	.	.	.	.	.	.	.	.	.	.	.	.
8r	.	(20dLL 20g	.	(20ggLL 20bb-	.	(20cc#LL 20ccc#	.	(20ff#LL 20fff#	.	.	.	4r	.	8r	.	8r	.	8r	.	4r	16bLL	.	8e	16BXLL	.	8g	16eLL	.	8r	.	8r	.	.	.	.	.	.	.	.	.	.	.	.	20eeeLL	.
.	.	20B 20e)	.	20ee 20gg)	.	20b 20bb)	.	20ee 20eee)	.	.	.	.	.	.	.	.	.	.	.	.	.	.	.	.	.	.	.	.	.	.	.	.	.	.	.	.	.	.	.	.	.	.	.	20eee	.
.	.	.	.	.	.	.	.	.	.	.	.	.	.	.	.	.	.	.	.	.	16b	.	.	16B	.	.	16e	.	.	.	.	.	.	.	.	.	.	.	.	.	.	.	.	.	.
.	.	20B 20e	.	20ee 20gg	.	20b 20bb	.	20ee 20eee	.	.	.	.	.	.	.	.	.	.	.	.	.	.	.	.	.	.	.	.	.	.	.	.	.	.	.	.	.	.	.	.	.	.	.	20eee	.
[8EE	.	.	.	.	.	.	.	.	.	.	.	.	.	[8G	f	[8B [8e	f	16cc#LL	.	.	16cc#X	.	8r	16B	.	8r	16e	.	([8EE	.	([8E	.	[8B [8e	.	[8bX	.	.	[8eenX	.	[8bb	.	[8ee [8gg	.	.	.
.	.	20B 20e	.	20ee 20gg	.	20b 20bb	.	20ee 20eee	.	.	.	.	.	.	.	.	.	.	.	.	.	.	.	.	.	.	.	.	.	.	.	.	.	.	.	.	.	.	.	.	.	.	.	20eee	.
.	.	.	.	.	.	.	.	.	.	.	.	.	.	.	.	.	.	16cc#JJ	.	.	16cc#JJ	.	.	16BJJ	.	.	16eJJ	.	.	.	.	.	.	.	.	.	.	.	.	.	.	.	.	.	.
.	.	20BJJ 20e	.	20eeJJ 20gg	.	20bJJ 20bb	.	20eeJJ 20eee	.	.	.	.	.	.	.	.	.	.	.	.	.	.	.	.	.	.	.	.	.	.	.	.	.	.	.	.	.	.	.	.	.	.	.	20eeeJJ	.
=84	=84	=84	=84	=84	=84	=84	=84	=84	=84	=84	=84	=84	=84	=84	=84	=84	=84	=84	=84	=84	=84	=84	=84	=84	=84	=84	=84	=84	=84	=84	=84	=84	=84	=84	=84	=84	=84	=84	=84	=84	=84	=84	=84	=84	=84
8EE]	.	16dLL 16g	.	16ggLL 16bb-X	.	16cc#XLL 16ccc#X	.	16ff#XLL 16fff#X	.	4r	.	2r	.	8G]	.	8B] 8e]	.	16cc#XLL	.	2r	16cc#XLL	.	(16gLL	8G'	.	(16b-LL	8e'	.	8EE]	.	8E]	.	8B] 8e])	.	8b])	.	8gg]	8ee])	.	8bb])	.	8ee] 8gg])	.	8fff#X'	.
.	.	16d 16g	.	16gg 16bb-	.	16cc# 16ccc#	.	16ff# 16fff#	.	.	.	.	.	.	.	.	.	16cc#	.	.	16cc#	.	16f#X)	.	.	16a)	.	.	.	.	.	.	.	.	.	.	.	.	.	.	.	.	.	.	.
*	*	*	*	*	*	*	*	*	*	*	*	*	*	*	*	*clefC4	*	*	*	*	*	*	*	*	*	*	*	*	*	*	*	*	*	*	*	*	*	*	*	*	*	*	*	*	*
4E	.	16d 16g	.	16gg 16bb-	.	16cc# 16ccc#	.	16ff# 16fff#	.	.	.	.	.	4E	.	4g 4b	.	16cc#	.	.	16dd#X	.	16f#'	8r	.	16a'	8r	.	4E)	.	4e)	.	4e 4g	.	4b-	.	[4.gg	4dd	.	4ccc#X	.	(4gg 4bb-X	.	8r	.
.	.	16dJJ 16g	.	16ggJJ 16bb-	.	16cc#JJ 16ccc#	.	16ff#JJ 16fff#	.	.	.	.	.	.	.	.	.	16cc#JJ	.	.	16dd#JJ	.	16f#'JJ	.	.	16a'JJ	.	.	.	.	.	.	.	.	.	.	.	.	.	.	.	.	.	.	.
.	.	(20dLL 20g	.	(20ggLL 20bb-	.	(20cc#LL 20ccc#	.	(20ff#LL 20fff#	.	20Rcc\LL	f	.	.	.	.	.	.	16cc#LL	.	.	16eeLL	.	8e'	16BXLL	.	8g'	16eLL	.	.	.	.	.	.	.	.	.	.	.	.	.	.	.	.	20eeeLL	.
.	.	20B 20e)	.	20ee 20gg)	.	20b 20bb)	.	20ee 20eee)	.	20Rcc\	.	.	.	.	.	.	.	.	.	.	.	.	.	.	.	.	.	.	.	.	.	.	.	.	.	.	.	.	.	.	.	.	.	20eee	.
.	.	.	.	.	.	.	.	.	.	.	.	.	.	.	.	.	.	16cc#JJ	.	.	16eeJJ	.	.	16B	.	.	16e	.	.	.	.	.	.	.	.	.	.	.	.	.	.	.	.	.	.
.	.	20B 20e	.	20ee 20gg	.	20b 20bb	.	20ee 20eee	.	20Rcc\	.	.	.	.	.	.	.	.	.	.	.	.	.	.	.	.	.	.	.	.	.	.	.	.	.	.	.	.	.	.	.	.	.	20eee	.
8r	.	.	.	.	.	.	.	.	.	.	.	.	.	8r	.	8r	.	8r	.	.	8r	.	8r	16B	.	8r	16e	.	8r	.	8r	.	8r	.	[8bX	.	.	[8ee	.	[8bb	.	8ee' 8gg)	.	.	.
.	.	20B 20e	.	20ee 20gg	.	20b 20bb	.	20ee 20eee	.	20Rcc\	.	.	.	.	.	.	.	.	.	.	.	.	.	.	.	.	.	.	.	.	.	.	.	.	.	.	.	.	.	.	.	.	.	20eee	.
.	.	.	.	.	.	.	.	.	.	.	.	.	.	.	.	.	.	.	.	.	.	.	.	16BJJ	.	.	16eJJ	.	.	.	.	.	.	.	.	.	.	.	.	.	.	.	.	.	.
.	.	20BJJ 20e	.	20eeJJ 20gg	.	20bJJ 20bb	.	20eeJJ 20eee	.	20Rcc\JJ	.	.	.	.	.	.	.	.	.	.	.	.	.	.	.	.	.	.	.	.	.	.	.	.	.	.	.	.	.	.	.	.	.	20eeeJJ	.
*	*	*	*	*	*	*	*	*	*	*	*	*	*	*	*	*	*	*	*	*v	*v	*	*	*	*	*v	*v	*	*	*	*	*	*	*	*	*	*v	*v	*	*	*	*	*	*	*
*	*	*	*	*	*	*	*	*	*	*	*	*	*	*	*	*	*	*	*	*	*	*v	*v	*	*	*	*	*	*	*	*	*	*	*	*	*	*	*	*	*	*	*
*	*	*clefF4	*	*	*	*	*	*	*	*	*	*	*	*	*	*clefF4	*	*	*	*	*	*	*	*	*	*	*	*	*	*	*	*	*	*	*	*	*	*	*	*	*
=	=	=	=	=	=	=	=	=	=	=	=	=	=	=	=	=	=	=	=	=	=	=	=	=	=	=	=	=	=	=	=	=	=	=	=	=	=	=	=	=	=
*-	*-	*-	*-	*-	*-	*-	*-	*-	*-	*-	*-	*-	*-	*-	*-	*-	*-	*-	*-	*-	*-	*-	*-	*-	*-	*-	*-	*-	*-	*-	*-	*-	*-	*-	*-	*-	*-	*-	*-	*-	*-
!!!system-decoration: [(s1,s2,s3,s4,s5,s6,s7,s8)][(s9,s10,s11,s12,s13,s14)][(s15,s16)][(s17,s18,s19,s20,s21)]
!!!RDF**kern: > = above
!!!RDF**kern: < = below
!!!EED: Daniel Wright
!!!EEV: 2021/08/05
!!!EED2: Rafael Laurindo
!!!EEV2: 2022/02/05
